src/assets/images/illustration.svg

<svg width="313" height="404" viewBox="0 0 313 404" fill="none" xmlns="http://www.w3.org/2000/svg">
<path opacity="0.5" d="M146.574 123.837C173.957 107.856 196.594 122.792 200.599 157.279C201.295 163.244 196.768 171.126 191.239 174.348L101.91 226.514C96.3813 229.736 91.8539 227.124 92.5504 220.331C96.5554 181.272 119.236 139.818 146.574 123.837Z" fill="url(#paint0_linear)"/>
<path opacity="0.5" d="M116.058 79.0734C116.058 102.892 129.814 114.126 146.792 104.198C163.77 94.2703 177.526 66.9681 177.526 43.1494C177.526 19.3307 163.77 8.09634 146.792 18.0244C129.814 27.9525 116.058 55.2547 116.058 79.0734Z" fill="url(#paint1_linear)"/>
<path opacity="0.07" d="M128.987 109.554C156.369 93.5736 179.006 108.509 183.011 142.996C183.708 148.962 179.181 156.843 173.652 160.066L84.3228 212.232C78.7942 215.454 74.2668 212.841 74.9633 206.048C78.9683 166.989 101.605 125.535 128.987 109.554Z" fill="url(#paint2_linear)"/>
<path opacity="0.07" d="M98.4709 64.7909C98.4709 88.6096 112.227 99.844 129.205 89.9159C146.183 79.9878 159.939 52.6856 159.939 28.8669C159.939 5.04826 146.183 -6.18614 129.205 3.74194C112.227 13.67 98.4709 40.9722 98.4709 64.7909Z" fill="url(#paint3_linear)"/>
<path opacity="0.2" d="M39.31 246.651C39.31 245.049 40.1644 243.569 41.5515 242.768L109.941 203.271C112.93 201.544 116.668 203.702 116.668 207.154V239.708L39.31 284.384V246.651Z" fill="url(#paint4_linear)"/>
<path d="M100.952 221.985C100.952 225.295 102.911 226.862 105.349 225.469C107.787 224.076 109.746 220.244 109.746 216.934C109.746 213.625 107.787 212.057 105.349 213.451C102.911 214.844 100.952 218.676 100.952 221.985Z" fill="#E559F9"/>
<path opacity="0.15" d="M96.8603 220.548L73.6138 234.004V238.837L96.9038 225.382L96.8603 220.548Z" fill="#FEFEFE"/>
<path opacity="0.15" d="M96.8602 230.259L47.32 258.867V263.788L96.8602 235.179V230.259Z" fill="#FEFEFE"/>
<path opacity="0.2" d="M196.463 200.06C196.463 198.457 197.318 196.977 198.706 196.176L267.095 156.717C270.085 154.993 273.821 157.15 273.821 160.601V193.159L196.463 237.835V200.06Z" fill="url(#paint5_linear)"/>
<path d="M258.105 175.393C258.105 178.703 260.064 180.27 262.502 178.877C264.94 177.483 266.899 173.651 266.899 170.342C266.899 167.033 264.94 165.465 262.502 166.859C260.064 168.252 258.105 172.084 258.105 175.393Z" fill="#835AFD"/>
<path opacity="0.15" d="M254.144 174.174L240.126 182.273V187.194L254.144 179.094V174.174Z" fill="#FEFEFE"/>
<path opacity="0.15" d="M254.013 183.884L204.473 212.493V217.413L254.013 188.805V183.884Z" fill="#FEFEFE"/>
<path opacity="0.3" d="M146.614 249.832C146.616 246.378 142.878 244.219 139.887 245.946L2.28353 325.416C0.897213 326.216 0.0428866 327.695 0.0419749 329.296L-7.43479e-05 403.129L133.645 325.969L144.617 329.553C145.583 329.869 146.575 329.149 146.575 328.133L146.614 249.832Z" fill="url(#paint6_linear)"/>
<path d="M116.842 284.863C116.842 291.177 120.542 294.095 125.156 291.438C129.771 288.782 133.471 281.51 133.471 275.24C133.471 268.926 129.771 266.009 125.156 268.665C120.586 271.321 116.842 278.593 116.842 284.863Z" fill="#E559F9"/>
<path opacity="0.15" d="M108.919 282.425L76.7917 300.975V307.68L108.919 289.131V282.425Z" fill="#FEFEFE"/>
<path opacity="0.15" d="M108.919 295.88L12.9728 351.268V357.974L108.919 302.586V295.88Z" fill="#FEFEFE"/>
<path opacity="0.15" d="M108.919 309.335L33.9121 352.662V359.367L108.919 316.041V309.335Z" fill="#FEFEFE"/>
<path opacity="0.3" d="M166.424 266.593C166.425 264.992 167.28 263.512 168.667 262.712L306.27 183.284C309.26 181.558 312.997 183.717 312.996 187.17L312.956 255.819L179.311 332.979L169.118 348.084C168.293 349.307 166.384 348.722 166.384 347.248L166.424 266.593Z" fill="url(#paint7_linear)"/>
<path d="M196.202 272.41C196.202 278.723 192.458 285.952 187.887 288.608C183.273 291.264 179.572 288.303 179.572 281.989C179.572 275.675 183.316 268.447 187.887 265.791C192.458 263.178 196.202 266.139 196.202 272.41Z" fill="#835AFD"/>
<path opacity="0.15" d="M204.125 260.87L236.252 242.321V249.026L204.125 267.576V260.87Z" fill="#FEFEFE"/>
<path opacity="0.15" d="M204.081 274.282L300.027 218.894V225.6L204.125 280.988L204.081 274.282Z" fill="#FEFEFE"/>
<path opacity="0.15" d="M204.081 287.737L279.088 244.411V251.116L204.081 294.443V287.737Z" fill="#FEFEFE"/>
<path opacity="0.2" d="M251.967 311.599C249.355 313.08 247.266 316.738 247.266 319.786V333.067L238.472 338.118C235.86 339.598 233.771 343.256 233.771 346.26C233.771 349.265 235.86 350.484 238.472 349.004L247.266 343.909V357.19C247.266 360.195 249.355 361.414 251.967 359.933C254.579 358.453 256.669 354.795 256.669 351.791V338.51L265.462 333.459C268.074 331.978 270.164 328.32 270.164 325.316C270.164 322.311 268.074 321.092 265.462 322.572L256.669 327.624V314.343C256.712 311.295 254.579 310.075 251.967 311.599Z" fill="url(#paint8_linear)"/>
<path opacity="0.2" d="M62.8176 141.472L50.7156 165.247C49.0613 168.513 49.3225 171.779 51.325 172.563C53.3275 173.347 56.2877 171.3 57.942 168.034L58.0726 167.729V194.117C58.0726 197.122 60.1621 198.341 62.7741 196.86C65.3861 195.336 67.4756 191.722 67.4756 188.718V162.33L67.6062 162.461C69.2605 163.81 72.2642 162.417 74.2232 159.325C76.2257 156.234 76.4869 152.663 74.8327 151.313L62.8176 141.472Z" fill="url(#paint9_linear)"/>
<defs>
<linearGradient id="paint0_linear" x1="33.6176" y1="97.7763" x2="144.84" y2="178.888" gradientUnits="userSpaceOnUse">
<stop stop-color="white"/>
<stop offset="1" stop-color="white" stop-opacity="0"/>
</linearGradient>
<linearGradient id="paint1_linear" x1="90.2879" y1="19.8906" x2="201.51" y2="101.002" gradientUnits="userSpaceOnUse">
<stop stop-color="white"/>
<stop offset="1" stop-color="white" stop-opacity="0"/>
</linearGradient>
<linearGradient id="paint2_linear" x1="16.023" y1="83.4889" x2="127.245" y2="164.601" gradientUnits="userSpaceOnUse">
<stop stop-color="white"/>
<stop offset="1" stop-color="white" stop-opacity="0"/>
</linearGradient>
<linearGradient id="paint3_linear" x1="72.6933" y1="5.60276" x2="183.915" y2="86.7144" gradientUnits="userSpaceOnUse">
<stop stop-color="white"/>
<stop offset="1" stop-color="white" stop-opacity="0"/>
</linearGradient>
<linearGradient id="paint4_linear" x1="69.2705" y1="226.769" x2="86.7271" y2="257.005" gradientUnits="userSpaceOnUse">
<stop stop-color="white"/>
<stop offset="1" stop-color="white" stop-opacity="0"/>
</linearGradient>
<linearGradient id="paint5_linear" x1="226.423" y1="180.183" x2="243.88" y2="210.419" gradientUnits="userSpaceOnUse">
<stop stop-color="white"/>
<stop offset="1" stop-color="white" stop-opacity="0"/>
</linearGradient>
<linearGradient id="paint6_linear" x1="83.6607" y1="244.547" x2="64.6993" y2="398.299" gradientUnits="userSpaceOnUse">
<stop stop-color="white"/>
<stop offset="1" stop-color="white" stop-opacity="0"/>
</linearGradient>
<linearGradient id="paint7_linear" x1="198.387" y1="233.403" x2="274.093" y2="292.664" gradientUnits="userSpaceOnUse">
<stop stop-color="white"/>
<stop offset="1" stop-color="white" stop-opacity="0"/>
</linearGradient>
<linearGradient id="paint8_linear" x1="242.889" y1="328.562" x2="265.686" y2="346.549" gradientUnits="userSpaceOnUse">
<stop stop-color="white"/>
<stop offset="1" stop-color="white" stop-opacity="0"/>
</linearGradient>
<linearGradient id="paint9_linear" x1="54.2151" y1="165.456" x2="76.298" y2="177.763" gradientUnits="userSpaceOnUse">
<stop stop-color="white"/>
<stop offset="1" stop-color="white" stop-opacity="0"/>
</linearGradient>
</defs>
</svg>

<?xml version="1.0" encoding="UTF-8"?>
<svg width="313" height="404" fill="none" version="1.1" viewBox="0 0 313 404" xmlns="http://www.w3.org/2000/svg">
 <path d="m146.57 123.84c27.383-15.981 50.02-1.045 54.025 33.442 0.696 5.965-3.831 13.847-9.36 17.069l-89.329 52.166c-5.5287 3.222-10.056 0.61-9.3596-6.183 4.005-39.059 26.686-80.513 54.024-96.494z" fill="url(#paint0_linear)" opacity=".5"/>
 <path d="m116.06 79.073c0 23.819 13.756 35.053 30.734 25.125 16.978-9.9277 30.734-37.23 30.734-61.049s-13.756-35.053-30.734-25.125c-16.978 9.9281-30.734 37.23-30.734 61.049z" fill="url(#paint1_linear)" opacity=".5"/>
 <path d="m128.99 109.55c27.382-15.98 50.019-1.045 54.024 33.442 0.697 5.966-3.83 13.847-9.359 17.07l-89.329 52.166c-5.5286 3.222-10.056 0.609-9.3595-6.184 4.005-39.059 26.642-80.513 54.024-96.494z" fill="url(#paint2_linear)" opacity=".07"/>
 <path d="m98.471 64.791c0 23.819 13.756 35.053 30.734 25.125s30.734-37.23 30.734-61.049c0-23.819-13.756-35.053-30.734-25.125-16.978 9.9281-30.734 37.23-30.734 61.049z" fill="url(#paint3_linear)" opacity=".07"/>
 <path d="m39.31 246.65c0-1.602 0.8544-3.082 2.2415-3.883l68.39-39.497c2.989-1.727 6.727 0.431 6.727 3.883v32.554l-77.358 44.676v-37.733z" fill="url(#paint4_linear)" opacity=".2"/>
 <path d="m100.95 221.98c0 3.31 1.959 4.877 4.397 3.484s4.397-5.225 4.397-8.535c0-3.309-1.959-4.877-4.397-3.483-2.438 1.393-4.397 5.225-4.397 8.534z" fill="#ec8000" fill-opacity=".79924"/>
 <path d="m96.86 220.55-23.246 13.456v4.833l23.29-13.455-0.0435-4.834z" fill="#FEFEFE" opacity=".15"/>
 <path d="m96.86 230.26-49.54 28.608v4.921l49.54-28.609v-4.92z" fill="#FEFEFE" opacity=".15"/>
 <path d="m196.46 200.06c0-1.603 0.855-3.083 2.243-3.884l68.389-39.459c2.99-1.724 6.726 0.433 6.726 3.884v32.558l-77.358 44.676v-37.775z" fill="url(#paint5_linear)" opacity=".2"/>
 <path d="m258.1 175.39c0 3.31 1.959 4.877 4.397 3.484 2.438-1.394 4.397-5.226 4.397-8.535s-1.959-4.877-4.397-3.483c-2.438 1.393-4.397 5.225-4.397 8.534z" fill="#6d02d8" fill-opacity=".80303"/>
 <path d="m254.14 174.17-14.018 8.099v4.921l14.018-8.1v-4.92z" fill="#FEFEFE" opacity=".15"/>
 <path d="m254.01 183.88-49.54 28.609v4.92l49.54-28.608v-4.921z" fill="#FEFEFE" opacity=".15"/>
 <path d="m146.61 249.83c2e-3 -3.454-3.736-5.613-6.727-3.886l-137.6 79.47c-1.3863 0.8-2.2406 2.279-2.2416 3.88l-0.042049 73.833 133.65-77.16 10.972 3.584c0.966 0.316 1.958-0.404 1.958-1.42l0.039-78.301z" fill="url(#paint6_linear)" opacity=".3"/>
 <path d="m116.84 284.86c0 6.314 3.7 9.232 8.314 6.575 4.615-2.656 8.315-9.928 8.315-16.198 0-6.314-3.7-9.231-8.315-6.575-4.57 2.656-8.314 9.928-8.314 16.198z" fill="#ec8000" fill-opacity=".79924"/>
 <g fill="#FEFEFE">
  <path d="m108.92 282.42-32.127 18.55v6.705l32.127-18.549v-6.706z" opacity=".15"/>
  <path d="m108.92 295.88-95.946 55.388v6.706l95.946-55.388v-6.706z" opacity=".15"/>
  <path d="m108.92 309.34-75.007 43.327v6.705l75.007-43.326v-6.706z" opacity=".15"/>
 </g>
 <path d="m166.42 266.59c1e-3 -1.601 0.856-3.081 2.243-3.881l137.6-79.428c2.99-1.726 6.727 0.433 6.726 3.886l-0.04 68.649-133.64 77.16-10.193 15.105c-0.825 1.223-2.734 0.638-2.734-0.836l0.04-80.655z" fill="url(#paint7_linear)" opacity=".3"/>
 <path d="m196.2 272.41c0 6.313-3.744 13.542-8.315 16.198-4.614 2.656-8.315-0.305-8.315-6.619s3.744-13.542 8.315-16.198c4.571-2.613 8.315 0.348 8.315 6.619z" fill="#6d02d8" fill-opacity=".80303"/>
 <g fill="#FEFEFE">
  <path d="m204.12 260.87 32.127-18.549v6.705l-32.127 18.55v-6.706z" opacity=".15"/>
  <path d="m204.08 274.28 95.946-55.388v6.706l-95.902 55.388-0.044-6.706z" opacity=".15"/>
  <path d="m204.08 287.74 75.007-43.326v6.705l-75.007 43.327v-6.706z" opacity=".15"/>
 </g>
 <path d="m251.97 311.6c-2.612 1.481-4.701 5.139-4.701 8.187v13.281l-8.794 5.051c-2.612 1.48-4.701 5.138-4.701 8.142 0 3.005 2.089 4.224 4.701 2.744l8.794-5.095v13.281c0 3.005 2.089 4.224 4.701 2.743 2.612-1.48 4.702-5.138 4.702-8.142v-13.281l8.793-5.051c2.612-1.481 4.702-5.139 4.702-8.143 0-3.005-2.09-4.224-4.702-2.744l-8.793 5.052v-13.281c0.043-3.048-2.09-4.268-4.702-2.744z" fill="url(#paint8_linear)" opacity=".2"/>
 <path d="m62.818 141.47-12.102 23.775c-1.6543 3.266-1.3931 6.532 0.6094 7.316s4.9627-1.263 6.617-4.529l0.1306-0.305v26.388c0 3.005 2.0895 4.224 4.7015 2.743 2.612-1.524 4.7015-5.138 4.7015-8.142v-26.388l0.1306 0.131c1.6543 1.349 4.658-0.044 6.617-3.136 2.0025-3.091 2.2637-6.662 0.6095-8.012l-12.015-9.841z" fill="url(#paint9_linear)" opacity=".2"/>
 <defs>
  <linearGradient id="paint0_linear" x1="33.618" x2="144.84" y1="97.776" y2="178.89" gradientUnits="userSpaceOnUse">
   <stop stop-color="#fff" offset="0"/>
   <stop stop-color="#fff" stop-opacity="0" offset="1"/>
  </linearGradient>
  <linearGradient id="paint1_linear" x1="90.288" x2="201.51" y1="19.891" y2="101" gradientUnits="userSpaceOnUse">
   <stop stop-color="#fff" offset="0"/>
   <stop stop-color="#fff" stop-opacity="0" offset="1"/>
  </linearGradient>
  <linearGradient id="paint2_linear" x1="16.023" x2="127.24" y1="83.489" y2="164.6" gradientUnits="userSpaceOnUse">
   <stop stop-color="#fff" offset="0"/>
   <stop stop-color="#fff" stop-opacity="0" offset="1"/>
  </linearGradient>
  <linearGradient id="paint3_linear" x1="72.693" x2="183.92" y1="5.6028" y2="86.714" gradientUnits="userSpaceOnUse">
   <stop stop-color="#fff" offset="0"/>
   <stop stop-color="#fff" stop-opacity="0" offset="1"/>
  </linearGradient>
  <linearGradient id="paint4_linear" x1="69.27" x2="86.727" y1="226.77" y2="257" gradientUnits="userSpaceOnUse">
   <stop stop-color="#fff" offset="0"/>
   <stop stop-color="#fff" stop-opacity="0" offset="1"/>
  </linearGradient>
  <linearGradient id="paint5_linear" x1="226.42" x2="243.88" y1="180.18" y2="210.42" gradientUnits="userSpaceOnUse">
   <stop stop-color="#fff" offset="0"/>
   <stop stop-color="#fff" stop-opacity="0" offset="1"/>
  </linearGradient>
  <linearGradient id="paint6_linear" x1="83.661" x2="64.699" y1="244.55" y2="398.3" gradientUnits="userSpaceOnUse">
   <stop stop-color="#fff" offset="0"/>
   <stop stop-color="#fff" stop-opacity="0" offset="1"/>
  </linearGradient>
  <linearGradient id="paint7_linear" x1="198.39" x2="274.09" y1="233.4" y2="292.66" gradientUnits="userSpaceOnUse">
   <stop stop-color="#fff" offset="0"/>
   <stop stop-color="#fff" stop-opacity="0" offset="1"/>
  </linearGradient>
  <linearGradient id="paint8_linear" x1="242.89" x2="265.69" y1="328.56" y2="346.55" gradientUnits="userSpaceOnUse">
   <stop stop-color="#fff" offset="0"/>
   <stop stop-color="#fff" stop-opacity="0" offset="1"/>
  </linearGradient>
  <linearGradient id="paint9_linear" x1="54.215" x2="76.298" y1="165.46" y2="177.76" gradientUnits="userSpaceOnUse">
   <stop stop-color="#fff" offset="0"/>
   <stop stop-color="#fff" stop-opacity="0" offset="1"/>
  </linearGradient>
 </defs>
</svg>
